apps/ui-icons/svgs/delete.svg

<svg viewBox="0 0 24 24" width="24" height="24"  fill="none" xmlns="http://www.w3.org/2000/svg">
<path fill-rule="evenodd" clip-rule="evenodd" d="M8 4C8 2.89543 8.89543 2 10 2H14C15.1046 2 16 2.89543 16 4V6H18.9897C18.9959 5.99994 19.0021 5.99994 19.0083 6H20C20.5523 6 21 6.44772 21 7C21 7.55228 20.5523 8 20 8H19.9311L19.1301 19.2137C19.018 20.7837 17.7117 22 16.1378 22H7.86224C6.28832 22 4.982 20.7837 4.86986 19.2137L4.06888 8H4C3.44772 8 3 7.55228 3 7C3 6.44772 3.44772 6 4 6H4.99174C4.99795 5.99994 5.00414 5.99994 5.01032 6H8V4ZM6.07398 8L6.86478 19.0712C6.90216 19.5946 7.3376 20 7.86224 20H16.1378C16.6624 20 17.0978 19.5946 17.1352 19.0712L17.926 8H6.07398ZM14 6H10V4H14V6ZM10 10C10.5523 10 11 10.4477 11 11V17C11 17.5523 10.5523 18 10 18C9.44772 18 9 17.5523 9 17V11C9 10.4477 9.44772 10 10 10ZM14 10C14.5523 10 15 10.4477 15 11V17C15 17.5523 14.5523 18 14 18C13.4477 18 13 17.5523 13 17V11C13 10.4477 13.4477 10 14 10Z" fill="#171D26"/>
</svg>

<svg xmlns="http://www.w3.org/2000/svg" width="24" height="24" fill="none" viewBox="0 0 24 24">
  <path fill="#171D26" fill-rule="evenodd" d="M8 4a2 2 0 0 1 2-2h4a2 2 0 0 1 2 2v2h4a1 1 0 1 1 0 2h-.069l-.8 11.214A3 3 0 0 1 16.137 22H7.862a3 3 0 0 1-2.992-2.786L4.069 8H4a1 1 0 0 1 0-2h4V4ZM6.074 8l.79 11.071a1 1 0 0 0 .998.929h8.276a1 1 0 0 0 .997-.929L17.926 8H6.074ZM14 6h-4V4h4v2Zm-4 4a1 1 0 0 1 1 1v6a1 1 0 1 1-2 0v-6a1 1 0 0 1 1-1Zm4 0a1 1 0 0 1 1 1v6a1 1 0 1 1-2 0v-6a1 1 0 0 1 1-1Z" clip-rule="evenodd"/>
</svg>
